X: 1
T: Polska efter Olof Nordblad
S: efter Olof Nordblad
O: Norrala, Hälsingland
B: FMK - katalog Hs13 bild 12
Z: Nils L
R: Slängpolska
N: Jämför med +.
M: 3/4
L: 1/8
K: Gm
GB/A/ G2 d2 | cd cB AG | GB/A/ G2 d2 | cd cB AG | GB     GB GB  |
^FA   FA FA | GB GB GB | ^FA   FA FA | GB Ad cB | AG/^F/ G4    ::
ba/g/ f2 f2 | gf ed cB | ba/g/ f2 f2 | gf ed cB | GB     GB GB  |
^FA   FA FA | GB GB GB | ^FA   FA FA | GB Ad cB | AG/^F/ G4    :|

